X: 21091
Q: "Slowish."
M: C|
L: 1/8
K: Em
(E>F) |\
|: g>a |\
b2g2 (gabg) | a2=d2 d2(ef) | g2e2 (efge) | f2B2 B2(GA) |\
(BABc) (BAGA) | (BABc) B2g2 | {g}f2e2 {g}f2e^d | e4 z2 :|


